svg/fluentui-system-icons/ic_fluent_conference_room_20_filled.svg

<svg width="20" height="20" viewBox="0 0 20 20" fill="none" xmlns="http://www.w3.org/2000/svg">
<path d="M9.18563 2.11315C9.30304 2.01822 9.45705 1.98143 9.60469 2.01304L16.6041 3.51182C16.8347 3.56119 16.9994 3.76494 16.9994 4.00074V16.0007C16.9994 16.2365 16.8348 16.4402 16.6043 16.4896L9.60485 17.9908C9.4572 18.0225 9.30314 17.9857 9.1857 17.8908C9.06825 17.7959 9 17.653 9 17.502L9.00063 2.50195C9.00063 2.35097 9.06823 2.20808 9.18563 2.11315ZM12.5018 10.0007C12.5018 9.58652 12.166 9.25073 11.7518 9.25073C11.3376 9.25073 11.0018 9.58652 11.0018 10.0007C11.0018 10.4149 11.3376 10.7507 11.7518 10.7507C12.166 10.7507 12.5018 10.4149 12.5018 10.0007ZM8.00183 3.00305H3.5C3.22386 3.00305 3 3.22691 3 3.50305V16.4984C3 16.7745 3.22386 16.9984 3.5 16.9984H8.00183V3.00305Z" fill="#212121"/>
</svg>

<svg xmlns="http://www.w3.org/2000/svg" width="20" height="20"><path d="M9.186 2.113a.5.5 0 0 1 .419-.1l7 1.499a.5.5 0 0 1 .394.489v12a.5.5 0 0 1-.395.489l-7 1.5A.5.5 0 0 1 9 17.503v-15a.5.5 0 0 1 .186-.389Zm3.316 7.888a.75.75 0 1 0-1.5 0 .75.75 0 0 0 1.5 0Zm-4.5-6.998H3.5a.5.5 0 0 0-.5.5v12.995a.5.5 0 0 0 .5.5h4.502V3.003Z"/></svg>
